X:37
T:Jigs simple chords 43
M:3/4
L:1/8
K:G
B[BE,G,B,] ef gf | e[bE,G,B,] ef gf | e[fB,^DFA] dB fd | B[bB,^DFA] c'b ag | f[BE,G,B,] ef gf |
e[bE,G,B,] ef gf | e2<[b2B,2^D2F2A2] b2 | a[gE,G,B,] ee e2 | B[BE,G,B,] ef gf |
e[bE,G,B,] ef gf | e[fB,^DFA] dB fd | B[bB,^DFA] c'b ag | f[BE,G,B,] ef gf |
e[bE,G,B,] ef gf | e2<[b2B,2^D2F2A2] b2 | a[gE,G,B,] ee2< e2 |[d3E,3G,3B,3] c3 |
[BG,B,D] dg bg | d[cD,F,A,C] df af | d[BG,B,D] dg bg | d2<[d2E,2G,2B,2] c3 |
[BG,B,D] dg bg | d[cD,F,A,C] df af | d[gG,B,D] db2< g2 |[d3G,3B,3D3] c3 |
[BG,B,D] dg bg | d[cD,F,A,C] df af | d[BG,B,D] dg bg | d2<[d2E,2G,2B,2] c3 |
[BG,B,D] dg bg | d[cD,F,A,C] df af | d[gG,B,D] db2< g2 |


